X: 128
T: Swallowtail Reel
%T: the Swallow's Tail Coat
%T: Pigeon on the Gate
Z: Mary Lou Knack
C: Irish
M: C|
R: reel
N: Also in A dorian, with 2 sharps.
K: Am
gf \
| "Am"eA (3cBA eA cA | "Am"cd ef "G"ge dB | "G"G2 BG dG BG | "G"Bd ef g2 fg |
| "Am"eA (3cBA eA cA | "Am"cd ef "G"g2 fg | "Am"af ge "G"dB GB | "(Am)"Ac "G"BG "Am"A2 :|
|: cd \
| "Am"ea ag ab ag | "Am"ed ef "G"ge dB | "G"G2 BG dG BG | "(Am)"cd ef "G"g2 fg |
| "Am"ea ag ab ag | "Am"ed ef "G"g2 fg | "Am"af ge "G"dB GB | "(Am)"Ac "G"BG "Am"A2 :|
